X: 7
T: The Star Of Munster
R: reel
M: 4/4
L: 1/8
K: Ddor
|:~c3 BAG|AGE GED|EAA ABd|eaa ged|
c3 BAG|AGE GED|EAA cde|1dcA A3:|2 dcA Acd|
|:eaa bag|aba age|deg ~g3|gaa age|
eaa bag|aba age|deg age|1dBG Acd:|2dBG A3|]


Tune 197	Setting 12857

